tools/download-figma-icons/icons/outlined-medium/enercity-e.svg

<svg width="24" height="24" viewBox="0 0 24 24" fill="none" xmlns="http://www.w3.org/2000/svg">
<path fill-rule="evenodd" clip-rule="evenodd" d="M8.12604 13.335H18.866C18.9035 12.9443 18.941 12.285 18.941 12C18.941 7.905 16.631 4.5 11.8685 4.5C7.69104 4.5 4.50354 7.69425 4.50354 12C4.50354 16.35 7.69104 19.5 11.906 19.5C15.056 19.5 17.036 18.3818 18.7535 16.3125L16.151 14.28C15.3485 15.615 13.5478 16.455 11.906 16.455C10.0685 16.455 8.41779 15.09 8.12604 13.335ZM20.441 12C20.441 12.36 20.3953 13.0875 20.3578 13.4775C20.2978 14.115 19.841 14.6318 19.241 14.79L19.6753 15.1275C19.9985 15.3818 20.2003 15.75 20.246 16.155C20.2903 16.56 20.1628 16.9575 19.9085 17.2725C17.756 19.8525 15.2878 21 11.906 21C6.82779 21 3.00354 17.13 3.00354 12C3.00354 6.87 6.81354 3 11.8685 3C16.991 3 20.441 6.6225 20.441 12ZM8.24596 10.7547H15.461C15.3185 8.6472 14.006 7.49969 11.996 7.49969C10.031 7.49969 8.60521 8.85795 8.24596 10.7547Z" fill="black"/>
</svg>

<svg xmlns="http://www.w3.org/2000/svg" width="24" height="24" fill="none" viewBox="0 0 24 24"><path fill="currentColor" fill-rule="evenodd" d="M8.126 13.335h10.74c.038-.39.075-1.05.075-1.335 0-4.095-2.31-7.5-7.072-7.5-4.178 0-7.365 3.194-7.365 7.5 0 4.35 3.187 7.5 7.402 7.5 3.15 0 5.13-1.118 6.847-3.187l-2.602-2.033c-.803 1.335-2.603 2.175-4.245 2.175-1.838 0-3.488-1.365-3.78-3.12M20.441 12c0 .36-.046 1.088-.083 1.477a1.51 1.51 0 0 1-1.117 1.313l.434.338c.323.254.525.622.571 1.027.044.405-.083.802-.337 1.117C17.756 19.853 15.288 21 11.906 21c-5.078 0-8.902-3.87-8.902-9s3.81-9 8.865-9c5.122 0 8.572 3.622 8.572 9M8.246 10.755h7.215C15.318 8.647 14.006 7.5 11.996 7.5c-1.965 0-3.39 1.358-3.75 3.255" clip-rule="evenodd"/></svg>
